X:1
T:Sing, Sing for Christmas!
T:John Sebastian Bach Hodges (1830-1915)
T:Sing, Sing for Christmas!
T:Public Domain
T:Public Domain
T:Public Domain
C:John Sebastian Bach Hodges (1830-1915)
Z:Public Domain
%%score ( 1 2 ) ( 3 4 )
L:1/8
M:2/4
K:A
V:1 treble 
V:2 treble 
V:3 bass 
V:4 bass 
V:1
 [EAc]2 [EBe]>[EGd] | [EAc] [EA]2 z | [DG]>[DF] E[CEA] | [EGB]2 z [EGB] | [EAc]>[Ec] [EB][^DA] | %5
w: 1.~Sing, sing for|Christ- mas!|Wel- come, hap- py|For Christ|is born our Sav-|
w: 2.~Tell, tell the|sto- ry|Of the won- drous|When shep-|herds who were watch-|
w: 3.~Soft, soft- ly|shin- ing,|Stars were in the|And sil-|ver fell the moon-|
w: 4.~Hark, hear them|sing- ing,|Sing- ing in the|Be wor-|ship, hon- or, glo-|
w: 5.~Sing, sing for|Christ- mas!|E- cho, earth, the|Of wor-|ship, hon- or, glo-|
 [EG]2 [EG][EA] | [EB]>[EB] [Ec][F^d] | [Ge]2 z E | [EBd]>[EBd] [EAc][EGB] | [EAc]2 z2 | %10
w: ior, To take|our sins a- way.|Sing, sing|joy- ful song, Loud|and|
w: ing Their flocks|till morn- ing light,|Saw an-|hosts from Heav’n, Heard|the|
w: light On hill|and mount- ain high,|When sud-|ly the night Shone|as|
w: ry, And praise|to God on high!|Peace, peace,|will to men Born|the|
w: ry, And praise|to God on high!|Sing, sing|joy- ful song, Let|it|
 [C^Ec]>[CEB] [CFA][CEG] | [CFA]2 z E | [DF]>[DG] [DFA][DEB] | [Ec] [Ae]2 [Ad] | %14
w: clear to- day; To|praise our|and Sav- ior, Who|in a man-|
w: an- gel voice, And|so were|the tid- ings Which|make the world|
w: bright mid- day, With|an- gel|who her- ald The|reign of peace|
w: Child from Heav’n! The|Christ, the|the Sav- ior The|Son to you|
w: ne- ver cease, Of|glo- ry|the high- est, On|earth, good will|
 [Ac]>[Ac] [Ad][DGB] | [CA]3 z ||"^Refrain" [Ec]2 [Ee]>[Ed] | [Ec] [EA]3 | [DG]>[DF] E[CA] | %19
w: ger lay. * *|||||
w: re- joice. * *|||||
w: for aye. Sing, sing|for|Christ- mas, Wel-|come, hap-|py day! For Christ|
w: is giv’n! * *|||||
w: and peace. * *|||||
 [EB]3 [FB] | [^Ec]>[Fc] [Gc][Ac] | (e>d) [Ec][EA] | F[Fd] [Ec][DB] | [CA]4 |] %24
w: |||||
w: |||||
w: born our|Sav- ior, To take|our * sins a-|||
w: |||||
w: |||||
V:2
 x4 | x4 | x2 E x | x4 | x4 | x4 | x4 | x3 E | x4 | x4 | x4 | x3 E | x4 | x4 | x4 | x4 || x4 | x4 | %18
w: ||day!|||||a||||Lord|||||||
w: ||night,|||||gel||||told|||||||
w: ||sky,|||||den-||||hosts|||||||
w: ||sky,|||||good-||||Lord,|||||||
w: ||cry,|||||the||||in|||||||
 x2 E x | x4 | x4 | E2 x2 | F x3 | x4 |] %24
w: ||||||
w: ||||||
w: is|||way.|||
w: ||||||
w: ||||||
V:3
 A,2 G,>E, | A, [C,A,]2 z | [D,A,]>[D,A,] [C,A,]A,, | E,2 z E, | A,>A, [G,B,][F,B,] | %5
 [E,B,]2 [D,B,][C,A,] | [B,,G,]>[B,,G,] [B,,A,][B,,F,] | [E,,E,]2 z E, | E,>E, E,E, | A,,2 z2 | %10
 C,>C, C,C, | F,2 z [C,A,] | [D,A,]>E, F,G, | [A,C] [=G,C]2 [F,D] | [E,E]>[E,C] [E,B,]E, | %15
 [A,,A,]3 z || A,2 [G,B,]>[E,G,] | A, [C,A,]3 | [D,A,]>[D,A,] [C,A,][A,,A,] | [E,G,]3 [D,F,] | %20
 [C,G,]>[^D,C] [^E,C][F,C] | [G,B,]2 A,[C,A,] | [D,A,][B,,A,] [E,G,][E,G,] | [A,,A,]4 |] %24
V:4
 x4 | x4 | x4 | x4 | x3/2 A,/ x2 | x4 | x4 | x3 E, | x4 | x4 | x4 | x4 | x4 | x4 | x4 | x4 || %16
 A,2 x2 | A, x3 | x4 | x4 | x4 | x2 A, x | x4 | x4 |] %24

